X: 29127
T: Nelson, The
R: hornpipe
M: 4/4
K: Gmajor
|:dBec BAdB|GFAF G2Bd|eBge edcB|BAcA GFED|
dBec BAdB|GFAF Ggec|BAcA GFAF|G2G2 G2:|
|:degf edcB|cdef g2fe|edcB cBAG|F2D2 D2AF|
DFAF GBdB|cege dBec|BAcA GFAF|G2G2 G2:|

